ui_kit/lib/assets/icons/hand_outline.svg

<svg width="16" height="20" viewBox="0 0 16 20" fill="none" xmlns="http://www.w3.org/2000/svg">
<path d="M1.58223 12.6051C1.58374 12.6157 1.5856 12.6263 1.58779 12.6369C1.96645 14.4523 2.58679 15.9632 3.57638 17.0243C4.58283 18.1034 5.92999 18.6732 7.65282 18.6732C8.92116 18.6732 10.0029 18.4148 10.919 17.8708C11.8314 17.3291 12.5431 16.5256 13.1096 15.4926C13.9087 14.2101 14.4579 12.478 14.8934 11.0471C14.9279 10.938 14.9649 10.8226 15.0029 10.704C15.0916 10.4274 15.1858 10.1336 15.2658 9.86351C15.3757 9.49282 15.4807 9.09835 15.4968 8.82233C15.5199 8.46801 15.416 8.13016 15.1859 7.87253C14.9565 7.61577 14.6342 7.47484 14.2854 7.45126C13.8939 7.42321 13.5444 7.52736 13.2445 7.77729C12.9669 8.00865 12.7601 8.34182 12.5806 8.71751L12.5806 8.7175L12.5784 8.72219L11.8969 10.1876L12.2107 2.99191C12.211 2.98465 12.2111 2.97739 12.2111 2.97012C12.2111 2.18282 11.5862 1.5579 10.7989 1.5579C10.0221 1.5579 9.4033 2.17687 9.39465 2.95362L9.27336 4.97643L9.18854 1.90463C9.18454 1.1209 8.5611 0.5 7.77633 0.5C6.99407 0.5 6.37197 1.12776 6.37197 1.91222H6.37178L6.37217 1.9262L6.47747 5.69202L6.06991 2.46558C6.05166 1.70239 5.43379 1.09596 4.66596 1.09596C3.8815 1.09596 3.25374 1.71805 3.25374 2.50032C3.25374 2.51811 3.25469 2.53589 3.25659 2.55358L3.7496 7.15541L3.31563 4.90123C3.28823 4.14649 2.67403 3.54952 1.91222 3.54952C1.12776 3.54952 0.5 4.17162 0.5 4.95388C0.5 4.97742 0.501662 5.00092 0.504973 5.02422L1.58223 12.6051ZM11.8513 11.3154C11.8512 11.3154 11.851 11.3143 11.8506 11.3118C11.8511 11.3141 11.8513 11.3153 11.8513 11.3154Z" stroke="#F5F9FF" stroke-opacity="0.95" stroke-linecap="round" stroke-linejoin="round"/>
</svg>

<svg xmlns="http://www.w3.org/2000/svg" width="16" height="20" fill="none" viewBox="0 0 16 20"><path stroke="#F5F9FF" stroke-linecap="round" stroke-linejoin="round" stroke-opacity=".95" d="m1.582 12.605.006.032c.378 1.815.999 3.326 1.988 4.387 1.007 1.08 2.354 1.65 4.077 1.65 1.268 0 2.35-.26 3.266-.803.912-.542 1.624-1.345 2.19-2.378.8-1.283 1.349-3.015 1.784-4.446l.11-.343c.089-.277.183-.57.263-.84.11-.371.215-.766.23-1.042a1.28 1.28 0 0 0-.31-.95 1.307 1.307 0 0 0-.9-.42 1.41 1.41 0 0 0-1.041.325c-.278.232-.485.565-.664.94h0l-.003.005-.681 1.466.314-7.196V2.97c0-.787-.625-1.412-1.412-1.412a1.4 1.4 0 0 0-1.404 1.396l-.122 2.022-.084-3.071A1.403 1.403 0 0 0 7.776.5c-.782 0-1.404.628-1.404 1.412h0v.014l.105 3.766-.407-3.226a1.4 1.4 0 0 0-1.404-1.37 1.401 1.401 0 0 0-1.41 1.458l.494 4.601-.434-2.254A1.4 1.4 0 0 0 1.912 3.55C1.128 3.55.5 4.172.5 4.954a.5.5 0 0 0 .005.07l1.077 7.581Zm10.27-1.29-.001-.003a.05.05 0 0 1 0 .003Z"/></svg>
